X:152
T: SCHREIB DU AN JENEM ORTE
N: E0735
O: Europa, Mitteleuropa, Deutschland, Niederrhein, Meurs
R: Liebes - Lied, Leid, Klage, Tod
M: 2/4
L: 1/16
K: F
F2 | E2G2G2G2 | G3AB2
c2 | A3GA2G2 | A3Bc2
C2 | F4F2F2 | d4c2
B2 | A4c3G | G4F2

@@@ Tune index: 4465
